site/static/img/page-home/logo-seul-RE.svg

<svg height="68" viewBox="0 0 57 68" width="57" xmlns="http://www.w3.org/2000/svg"><path d="m467.566789 982.72895-.567171.27105-.565433-.27105c-5.081436-2.436456-9.365405-5.886543-12.745824-10.249273.005465-.18552-.060618-.385005-.225577-.601196-2.686548-3.519159-4.785802-7.629042-6.23938-12.215943-2.463207-7.773169-2.223404-14.192336-2.212042-14.46164l.043227-1.025102 1.110245-.114953c5.934801-.610673 11.033877-2.831934 14.267473-4.587649 3.460415-1.879893 5.624013-3.675006 5.718417-3.753304l.850633-.71989.854359.724379c.228061.190009 2.324333 1.908569 5.712206 3.748815 3.230615 1.755715 8.328945 3.976976 14.267225 4.587649l1.110244.114953.043228 1.025102c.011381.269304.251413 6.68872-2.212042 14.46164-1.453578 4.586901-3.552832 8.697282-6.239629 12.215943-.167443.219433-.237004.423655-.236508.61541-3.378929 4.355747-7.658425 7.801346-12.733651 10.235059m27.433211-21.513818c0-7.051626-.625709-13.459102-1.875889-19.089576-3.62713-16.33319-12.510466-26.125556-26.624235-26.125556-13.953934 0-22.795143 9.571855-26.498598 25.573286-1.333937 5.762085-2.001278 12.358535-2.001278 19.641846 0 3.201875.172721 6.332979.503293 9.36674.043614-.01192.08698-.025578.130594-.037-.000744.031537-.006939.062825-.006939.094859 0 3.564924 11.337107 4.235147 14.027533 2.6208 3.435329 4.36651 7.763006 7.829373 12.886387 10.280817l.95876.458652.960495-.458652c5.101326-2.441263 9.41364-5.886495 12.84203-10.227676 2.556859 1.703992 13.39885 1.344172 14.103857-1.963986.050057-.234913.084254-.47082.084254-.709955l-.000248-.00149c.33429-3.051392.509984-6.201368.509984-9.423109" fill="#fff" fill-rule="evenodd" transform="translate(-438 -916)"/></svg>

<?xml version="1.0" encoding="UTF-8"?>
<svg width="57px" height="68px" viewBox="0 0 57 68" version="1.1" xmlns="http://www.w3.org/2000/svg" xmlns:xlink="http://www.w3.org/1999/xlink">
    <!-- Generator: Sketch 61.1 (89650) - https://sketch.com -->
    <title>Fill 34</title>
    <desc>Created with Sketch.</desc>
    <g id="Page-1" stroke="none" stroke-width="1" fill="none" fill-rule="evenodd">
        <g id="HOME-RE" transform="translate(-438.000000, -916.000000)" fill="#FFFFFF">
            <path d="M467.566789,982.72895 L466.999618,983 L466.434185,982.72895 C461.352749,980.292494 457.06878,976.842407 453.688361,972.479677 C453.693826,972.294157 453.627743,972.094672 453.462784,971.878481 C450.776236,968.359322 448.676982,964.249439 447.223404,959.662538 C444.760197,951.889369 445,945.470202 445.011362,945.200898 L445.054589,944.175796 L446.164834,944.060843 C452.099635,943.45017 457.198711,941.228909 460.432307,939.473194 C463.892722,937.593301 466.05632,935.798188 466.150724,935.71989 L467.001357,935 L467.855716,935.724379 C468.083777,935.914388 470.180049,937.632948 473.567922,939.473194 C476.798537,941.228909 481.896867,943.45017 487.835147,944.060843 L488.945391,944.175796 L488.988619,945.200898 C489,945.470202 489.240032,951.889618 486.776577,959.662538 C485.322999,964.249439 483.223745,968.35982 480.536948,971.878481 C480.369505,972.097914 480.299944,972.302136 480.30044,972.493891 C476.921511,976.849638 472.642015,980.295237 467.566789,982.72895 M495,961.215132 C495,954.163506 494.374291,947.75603 493.124111,942.125556 C489.496981,925.792366 480.613645,916 466.499876,916 C452.545942,916 443.704733,925.571855 440.001278,941.573286 C438.667341,947.335371 438,953.931821 438,961.215132 C438,964.417007 438.172721,967.548111 438.503293,970.581872 C438.546907,970.569952 438.590273,970.556294 438.633887,970.544872 C438.633143,970.576409 438.626948,970.607697 438.626948,970.639731 C438.626948,974.204655 449.964055,974.874878 452.654481,973.260531 C456.08981,977.627041 460.417487,981.089904 465.540868,983.541348 L466.499628,984 L467.460123,983.541348 C472.561449,981.100085 476.873763,977.654853 480.302153,973.313672 C482.859012,975.017664 493.701003,974.657844 494.40601,971.349686 C494.456067,971.114773 494.490264,970.878866 494.490264,970.639731 L494.490016,970.638241 C494.824306,967.586849 495,964.436873 495,961.215132" id="Fill-34"></path>
        </g>
    </g>
</svg>
